X:483
T:Highland Cathedral
M:4/4
L:1/8
K:G
|: G2  G A/B/ AG DG | A2 AB B2 B2 | B2 B c/d/ cB AG | A2 AB D4 | 
E2 E F/G/ GD FG | d2 dc B4 | A2 A B/c/ BG DG | A2 AG G4 || 
|: F2 FD A2 A F/A/ | B2 BF F2 FE | D2 D/E/F E4 | F2 FG/A/ E4 | 
F2 FD A2 AF/A/ | B2 BF F2 FE | D2 D/E/F E2>D2 | D8 || 
|: B2 BG d2 d B/d/ | e2 eB B2 BA | G2 G/A/ B A4 | B2 B c/d/ A4 | 
B2 BG d2 d B/d/ | e2 eB B2 BA | G2 G/A/ B A3 G | G8 || 

